dist/img/svg/icon-ok.svg

<svg width="30" height="30" viewBox="0 0 30 30" fill="none" xmlns="http://www.w3.org/2000/svg">
<circle cx="15" cy="15" r="15" fill="#EE7221"/>
<path d="M14.5483 18.4485C13.2401 18.3121 12.0606 17.9899 11.0507 17.2001C10.9254 17.1018 10.7961 17.0071 10.6817 16.8973C10.2397 16.4728 10.1952 15.9866 10.5449 15.4856C10.8441 15.0568 11.3464 14.9421 11.8685 15.1883C11.9696 15.236 12.0659 15.2956 12.1582 15.3595C14.0402 16.6527 16.6257 16.6884 18.5148 15.4177C18.702 15.2742 18.9021 15.1572 19.134 15.0974C19.5848 14.9817 20.0053 15.1473 20.2472 15.5418C20.5236 15.9923 20.5201 16.432 20.1795 16.7817C19.6571 17.318 19.0288 17.7059 18.3307 17.9767C17.6706 18.2326 16.9475 18.3614 16.2319 18.447C16.3399 18.5645 16.3908 18.6223 16.4583 18.6901C17.43 19.6664 18.406 20.6387 19.3745 21.618C19.7045 21.9516 19.7734 22.3654 19.5917 22.7535C19.393 23.1777 18.9484 23.4567 18.5124 23.4269C18.2361 23.4078 18.0207 23.2703 17.8293 23.0774C17.096 22.3396 16.3489 21.6153 15.6305 20.8635C15.4214 20.6448 15.3209 20.6862 15.1364 20.876C14.3987 21.6355 13.6489 22.3832 12.8948 23.1268C12.5562 23.4606 12.1532 23.5207 11.7605 23.33C11.3431 23.1276 11.0774 22.7015 11.0979 22.2733C11.1121 21.9836 11.2545 21.7624 11.4533 21.5639C12.415 20.6037 13.3739 19.641 14.3333 18.6792C14.3967 18.6152 14.4559 18.5473 14.5483 18.4485Z" fill="white"/>
<path d="M15.3453 15.104C13.0115 15.0961 11.0978 13.1613 11.1114 10.8238C11.1248 8.46049 13.0397 6.55598 15.3965 6.56252C17.7581 6.56888 19.6536 8.50078 19.6417 10.8887C19.6297 13.2214 17.7028 15.1121 15.3453 15.104ZM17.4663 10.8295C17.4622 9.66883 16.5379 8.74486 15.3796 8.7438C14.2115 8.74256 13.2789 9.68333 13.2879 10.8546C13.2965 12.0108 14.2288 12.9282 15.3903 12.924C16.5483 12.9199 17.4702 11.9899 17.4663 10.8295Z" fill="white"/>
</svg>

<svg width="30" height="30" viewBox="0 0 30 30" fill="none" xmlns="http://www.w3.org/2000/svg"><circle cx="15" cy="15" r="15" fill="#EE7221"/><path d="M14.548 18.448c-1.308-.136-2.487-.458-3.497-1.248-.126-.098-.255-.193-.37-.303-.441-.424-.486-.91-.136-1.411.3-.43.801-.544 1.323-.298.102.048.198.108.29.171 1.882 1.294 4.468 1.33 6.357.059.187-.144.387-.26.619-.32a.972.972 0 011.113.444c.277.45.273.89-.067 1.24a5.134 5.134 0 01-1.85 1.195c-.66.256-1.382.384-2.098.47.108.117.159.175.226.243.972.976 1.948 1.949 2.917 2.928.33.334.398.747.217 1.136-.199.424-.644.703-1.08.673-.276-.02-.491-.157-.683-.35-.733-.737-1.48-1.462-2.199-2.214-.209-.218-.31-.177-.494.013-.737.76-1.487 1.507-2.241 2.25-.339.335-.742.395-1.134.204-.418-.202-.684-.628-.663-1.057.014-.29.156-.51.355-.71.962-.96 1.92-1.922 2.88-2.884.064-.064.123-.132.215-.23z" fill="#fff"/><path d="M15.345 15.104c-2.334-.008-4.247-1.943-4.234-4.28a4.278 4.278 0 014.285-4.261c2.362.006 4.258 1.938 4.246 4.326-.012 2.332-1.94 4.223-4.297 4.215zm2.121-4.274a2.08 2.08 0 00-2.086-2.086 2.083 2.083 0 00-2.092 2.11 2.08 2.08 0 002.102 2.07 2.076 2.076 0 002.076-2.095z" fill="#fff"/></svg>
